dist/assets/img/visa.svg

<svg width="24" height="24" fill="none" xmlns="http://www.w3.org/2000/svg"><path d="M21.5 6a.5.5 0 0 1 .5.5v11a.5.5 0 0 1-.5.5h-19a.5.5 0 0 1-.5-.5v-11a.5.5 0 0 1 .5-.5h19ZM24 6a2 2 0 0 0-2-2H2a2 2 0 0 0-2 2v12a2 2 0 0 0 2 2h20a2 2 0 0 0 2-2V6ZM10.447 9.63h1.295l-.81 4.753H9.637l.81-4.753Zm3.907 1.908c-.453-.22-.73-.367-.727-.589 0-.198.235-.409.742-.409.424-.007.73.086.97.182l.116.055.176-1.03a3.354 3.354 0 0 0-1.161-.2c-1.28 0-2.182.645-2.189 1.568-.007.683.644 1.064 1.135 1.291.504.233.674.381.671.59-.003.318-.403.464-.775.464-.518 0-.794-.072-1.219-.249l-.167-.076-.182 1.064c.303.133.862.248 1.443.254 1.362 0 2.246-.637 2.256-1.624.003-.541-.342-.952-1.089-1.291ZM20 14.384h-1.202l-.158-.712-1.659-.002-.273.714h-1.36l1.924-4.355c.136-.309.368-.394.678-.394h1.001L20 14.384Zm-1.571-1.686-.3-1.372-.088-.41-.172.454-.516 1.328h1.076ZM8.55 9.633l-1.268 3.241-.135-.659-.454-2.184c-.079-.3-.306-.39-.588-.401H4.016L4 9.729c.508.123.962.3 1.361.521l1.152 4.128 1.371-.002 2.039-4.743H8.55Z" fill="#383838"/></svg>

<svg width="24" height="24" viewBox="0 0 24 24" fill="none" xmlns="http://www.w3.org/2000/svg">
<path d="M21.5 6C21.776 6 22 6.224 22 6.5V17.5C22 17.776 21.776 18 21.5 18H2.5C2.224 18 2 17.776 2 17.5V6.5C2 6.224 2.224 6 2.5 6H21.5ZM24 6C24 4.896 23.104 4 22 4H2C0.895 4 0 4.896 0 6V18C0 19.104 0.895 20 2 20H22C23.104 20 24 19.104 24 18V6ZM10.447 9.63H11.742L10.932 14.383H9.637L10.447 9.63ZM14.354 11.538C13.901 11.318 13.624 11.171 13.627 10.949C13.627 10.751 13.862 10.54 14.369 10.54C14.793 10.533 15.099 10.626 15.339 10.722L15.455 10.777L15.631 9.747C15.374 9.651 14.972 9.547 14.47 9.547C13.19 9.547 12.288 10.192 12.281 11.115C12.274 11.798 12.925 12.179 13.416 12.406C13.92 12.639 14.09 12.787 14.087 12.996C14.084 13.314 13.684 13.46 13.312 13.46C12.794 13.46 12.518 13.388 12.093 13.211L11.926 13.135L11.744 14.199C12.047 14.332 12.606 14.447 13.187 14.453C14.549 14.453 15.433 13.816 15.443 12.829C15.446 12.288 15.101 11.877 14.354 11.538ZM20 14.384H18.798L18.64 13.672L16.981 13.67L16.708 14.384H15.348L17.272 10.029C17.408 9.72 17.64 9.635 17.95 9.635H18.951L20 14.384ZM18.429 12.698L18.129 11.326L18.041 10.916L17.869 11.37L17.353 12.698H18.429ZM8.55 9.633L7.282 12.874L7.147 12.215L6.693 10.031C6.614 9.731 6.387 9.641 6.105 9.63H4.016L4 9.729C4.508 9.852 4.962 10.029 5.361 10.25L6.513 14.378L7.884 14.376L9.923 9.633H8.55Z" fill="#383838"/>
</svg>
